X:149
T:We're No Awa Tae Bide Awa
S:Catherine Smith, Dundee
Z:Nigel Gatherer
M:4/4
L:1/8
K:D
DE|F3 A GFED|F2 D2 D2 FA|d3 e dcBA|B4 A3 A|
d3 e d2 F2|G2 B2 A3 A|B2 A2 d2 F2|E4 D2|]
<end>
<start>
